大富翁/go.svg

<svg height="41.2px" stroke-miterlimit="10" style="fill-rule:nonzero;clip-rule:evenodd;stroke-linecap:round;stroke-linejoin:round;" version="1.1" viewBox="0 0 60 41.2" width="60.0px" xml:space="preserve" xmlns="http://www.w3.org/2000/svg" xmlns:xlink="http://www.w3.org/1999/xlink">
<defs/>
<path d="M16.4539-0.00283688C11.117-0.00283688 7.01241 1.78794 4.1844 5.31631C1.35638 8.84468 0 13.9511 0 20.6355C0 27.2135 1.38298 32.2401 4.1844 35.8128C6.98582 39.3855 10.9574 41.2028 16.0993 41.2028C18.1738 41.2028 20.0975 40.8748 21.9149 40.2099C23.7323 39.545 25.3723 38.5255 26.8794 37.2312L26.8794 19.0752L14.6809 19.0752L14.6809 25.6709L20.0709 25.6709L20.0709 33.2596C19.6986 33.561 19.1844 33.7472 18.5816 33.8979C17.9787 34.0486 17.2695 34.1816 16.4539 34.1816C13.7411 34.1816 11.7021 33.0113 10.2837 30.7064C8.86525 28.4014 8.15603 25.0504 8.15603 20.6355C8.15603 16.0787 8.88298 12.6656 10.3546 10.4227C11.8262 8.17979 14.0426 7.01844 17.0213 7.01844C18.7234 7.01844 20.2748 7.43511 21.7021 8.15319C23.1294 8.87128 24.4326 9.92624 25.5319 11.3447L25.5319 2.62128C24.1844 1.77021 22.6773 1.15851 21.1348 0.706383C19.5922 0.254255 18.0496-0.00283688 16.4539-0.00283688ZM46.0284-0.00283688C41.4362-0.00283688 37.9521 1.77021 35.6028 5.24539C33.2535 8.72057 32.1277 13.8447 32.1277 20.6355C32.1277 27.4085 33.2535 32.4794 35.6028 35.9546C37.9521 39.4298 41.4362 41.2028 46.0284 41.2028C50.6383 41.2028 54.1046 39.4298 56.4539 35.9546C58.8032 32.4794 60 27.4085 60 20.6355C60 13.8447 58.8032 8.72057 56.4539 5.24539C54.1046 1.77021 50.6383-0.00283688 46.0284-0.00283688ZM43.6879 10.139C43.6879 10.139 45.461 10.3068 45.461 12.3376C45.461 12.7261 45.408 13.1056 45.2482 13.4723C44.6754 14.7886 42.9787 17.444 42.9787 17.444L46.383 17.444L49.078 17.444L56.8085 17.444C57.5602 17.444 58.156 18.0398 58.156 18.7915C58.156 19.5431 57.5602 20.139 56.8085 20.139L49.078 20.139L48.3688 29.3589C48.2898 30.3003 47.4689 31.061 46.5248 31.061L39.1489 31.061C37.1436 31.061 35.461 29.4493 35.461 27.444L35.461 20.8482C35.461 19.2323 36.2058 17.6987 37.4468 16.6638L40.922 13.827L43.6879 10.139Z" fill="#000000" fill-rule="nonzero" opacity="1" stroke="none"/>
</svg>

<svg height="41.2" viewBox="0 0 60 41.2" stroke-miterlimit="10" width="60" xmlns="http://www.w3.org/2000/svg" clip-rule="evenodd" stroke-linecap="round" stroke-linejoin="round"><path d="M16.454-.003c-5.337 0-9.442 1.79-12.27 5.32C1.356 8.844 0 13.95 0 20.635c0 6.578 1.383 11.604 4.184 15.177 2.802 3.572 6.773 5.39 11.915 5.39 2.075 0 3.998-.328 5.816-.993 1.817-.665 3.457-1.684 4.964-2.979V19.075H14.681v6.596h5.39v7.589c-.372.301-.887.487-1.49.638a8.648 8.648 0 01-2.127.284c-2.713 0-4.752-1.17-6.17-3.476-1.419-2.305-2.128-5.656-2.128-10.07 0-4.557.727-7.97 2.199-10.213 1.471-2.243 3.688-3.405 6.666-3.405 1.702 0 3.254.417 4.681 1.135s2.73 1.773 3.83 3.192V2.62c-1.348-.85-2.855-1.462-4.397-1.915-1.543-.452-3.085-.709-4.681-.709zm29.574 0c-4.592 0-8.076 1.773-10.425 5.248-2.35 3.476-3.475 8.6-3.475 15.39 0 6.773 1.126 11.844 3.475 15.32 2.35 3.475 5.833 5.248 10.425 5.248 4.61 0 8.077-1.773 10.426-5.248C58.804 32.479 60 27.409 60 20.635c0-6.79-1.197-11.914-3.546-15.39-2.35-3.475-5.816-5.248-10.426-5.248zm-2.34 10.142s1.773.168 1.773 2.199c0 .388-.053.768-.213 1.134-.573 1.317-2.27 3.972-2.27 3.972h13.83c.752 0 1.348.596 1.348 1.348 0 .751-.596 1.347-1.347 1.347h-7.731l-.71 9.22c-.078.941-.9 1.702-1.843 1.702h-7.376c-2.005 0-3.688-1.612-3.688-3.617v-6.596c0-1.616.745-3.15 1.986-4.184l3.475-2.837 2.766-3.688z"/></svg>
